localPackages/DesignSystem/Sources/DesignSystem/Resources/Assets.xcassets/IconSet/ic-folder-arrow-up.imageset/ic-folder-arrow-up.svg

<svg width="24" height="24" viewBox="0 0 24 24" fill="none" xmlns="http://www.w3.org/2000/svg">
<g id="ic-folder-arrow-up">
<path id="Icon" fill-rule="evenodd" clip-rule="evenodd" d="M4.5 3C2.84315 3 1.5 4.34315 1.5 6V10.5V15V18C1.5 19.6569 2.84315 21 4.5 21H9.75V19.5H4.5C3.67157 19.5 3 18.8284 3 18V15V10.5V6C3 5.17157 3.67157 4.5 4.5 4.5H9C9.32456 4.5 9.64036 4.60527 9.9 4.8L12.1 6.45C12.3596 6.64473 12.6754 6.75 13 6.75H19.5C20.3284 6.75 21 7.42157 21 8.25V18C21 18.8284 20.3284 19.5 19.5 19.5H14.25V21H19.5C21.1569 21 22.5 19.6569 22.5 18V8.25C22.5 6.59315 21.1569 5.25 19.5 5.25H13L10.8 3.6C10.2807 3.21053 9.64911 3 9 3H4.5ZM8.46967 14.0303C8.17678 13.7374 8.17678 13.2626 8.46967 12.9697L11.2575 10.1818C11.6676 9.77175 12.3324 9.77175 12.7425 10.1818L15.5303 12.9697C15.8232 13.2626 15.8232 13.7374 15.5303 14.0303C15.2374 14.3232 14.7626 14.3232 14.4697 14.0303L12.75 12.3107V21H11.25V12.3107L9.53033 14.0303C9.23744 14.3232 8.76256 14.3232 8.46967 14.0303Z" fill="#0F0F0F"/>
</g>
</svg>

<svg xmlns="http://www.w3.org/2000/svg" width="24" height="24" viewBox="0 0 24 24">
  <g class="ic-folder-arrow-up">
    <path fill-rule="evenodd" d="M4.5 3a3 3 0 0 0-3 3v12a3 3 0 0 0 3 3h5.25v-1.5H4.5A1.5 1.5 0 0 1 3 18V6a1.5 1.5 0 0 1 1.5-1.5H9c.325 0 .64.105.9.3l2.2 1.65c.26.195.575.3.9.3h6.5a1.5 1.5 0 0 1 1.5 1.5V18a1.5 1.5 0 0 1-1.5 1.5h-5.25V21h5.25a3 3 0 0 0 3-3V8.25a3 3 0 0 0-3-3H13L10.8 3.6A3 3 0 0 0 9 3H4.5Zm3.97 11.03a.75.75 0 0 1 0-1.06l2.787-2.788a1.05 1.05 0 0 1 1.486 0l2.787 2.788a.75.75 0 1 1-1.06 1.06l-1.72-1.72V21h-1.5v-8.69l-1.72 1.72a.75.75 0 0 1-1.06 0Z" class="Icon"/>
  </g>
</svg>
